!!!OTL: Die Losgekaufte.
!!!OTL-incipit: ACH SCHIFFER, LIEBER SCHIFFER, STOSS' NOCH NICHT AB
!!!ARE: Europa, Mitteleuropa, Deutschland, Niederrhein
!!!SCT: Z0102
!!!TXL: @@DE
!!!YEM: Copyright 1995, estate of Helmut Schaffrath.
**kern	**text
*ICvox	*
*M2/4	*
*k[b-e-]	*
*B-:	*
!LO:TX:a:t=Niederrhein.	!
!LO:TX:a:t=(Von Beethoden in ſeinem Septett ʒu Bariationen benutʒt.)	!
{8b-/	Ach
=1	=1
8a	Schif-
8f	-fer,
8b-/	lie-
8cc	-ber
=2	=2
4dd	Schif-
8cc}	-fer,
{8dd	ſtoß
=3	=3
8ffqq	.
8ee-	noch
8dd	nicht
8cc	ab,
8b-	o
=4	=4
8a	ma-
8g	-che
8f}	Halt.
{8b-/	Lieb
=5	=5
8a	Schweſter
8f	.
8b-/	wird
8cc	mich
=6	=6
4dd	ret-
8cc}	-ten,
{8dd	da
=7	=7
8ee-	kommt
8dd	ſie
8cc	her-
16ddL	-ge-
16ccJ	.
=8	=8
4b-	-wallt!
8r}	.
{8dd	Willſt
=9	=9
8dd	du
8dd	den
8dd	De-
8cc	-mant
=10	=10
4cc	ge-
8cc}	-ben,
{8een	o
=11	=11
8ff	Schweſter,
8ee-	.
8ff	frei
8gg	bin
=12	=12
8cc	ich
8cc	im
8cc}	Nu!
{8b-	Jch
=13	=13
8a	ret-
8f	-te
8b-/	nicht
8cc	dein
=14	=14
4dd	Le-
8cc}	-ben,
{8dd	du
=15	=15
8ee-	Schiffer,
8dd	.
8cc	fah-
16ddL	-re
16ccJ	.
=16	=16
4b-	ʒu!
8r}	.
==	==
!!!AGN: Sagen - Lied, Romanze
!!!ONB: ESAC (Essen Associative Code) Database: ZUCCAL
!!!AMT: simple duple
!!!AIN: vox
!!!EED: Helmut Schaffrath
!!!EEV: 1.0
!!!GTL: I. Ernste Romanzen und Sagen.
!!!URL-scan: https://www.digitale-sammlungen.de/de/view/bsb11160571?page=199
!!!ENC: Anna Maria Matuszewska
!!!EEV: 2025/01/27
*-	*-
